assets/BrowserBar/snapchat.svg

<svg xmlns="http://www.w3.org/2000/svg" viewBox="0 0 512 512"><!--! Font Awesome Free 6.1.1 by @fontawesome - https://fontawesome.com License - https://fontawesome.com/license/free (Icons: CC BY 4.0, Fonts: SIL OFL 1.1, Code: MIT License) Copyright 2022 Fonticons, Inc. --><path d="M496.926,366.6c-3.373-9.176-9.8-14.086-17.112-18.153-1.376-.806-2.641-1.451-3.72-1.947-2.182-1.128-4.414-2.22-6.634-3.373-22.8-12.09-40.609-27.341-52.959-45.42a102.889,102.889,0,0,1-9.089-16.12c-1.054-3.013-1-4.724-.248-6.287a10.221,10.221,0,0,1,2.914-3.038c3.918-2.591,7.96-5.22,10.7-6.993,4.885-3.162,8.754-5.667,11.246-7.44,9.362-6.547,15.909-13.5,20-21.278a42.371,42.371,0,0,0,2.1-35.191c-6.2-16.318-21.613-26.449-40.287-26.449a55.543,55.543,0,0,0-11.718,1.24c-1.029.224-2.059.459-3.063.72.174-11.16-.074-22.94-1.066-34.534-3.522-40.758-17.794-62.123-32.674-79.16A130.167,130.167,0,0,0,332.1,36.443C309.515,23.547,283.91,17,256,17S202.6,23.547,180,36.443a129.735,129.735,0,0,0-33.281,26.783c-14.88,17.038-29.152,38.44-32.673,79.161-.992,11.594-1.24,23.435-1.079,34.533-1-.26-2.021-.5-3.051-.719a55.461,55.461,0,0,0-11.717-1.24c-18.687,0-34.125,10.131-40.3,26.449a42.423,42.423,0,0,0,2.046,35.228c4.105,7.774,10.652,14.731,20.014,21.278,2.48,1.736,6.361,4.24,11.246,7.44,2.641,1.711,6.5,4.216,10.28,6.72a11.054,11.054,0,0,1,3.3,3.311c.794,1.624.818,3.373-.36,6.6a102.02,102.02,0,0,1-8.94,15.785c-12.077,17.669-29.363,32.648-51.434,44.639C32.355,348.608,20.2,352.75,15.069,366.7c-3.868,10.528-1.339,22.506,8.494,32.6a49.137,49.137,0,0,0,12.4,9.387,134.337,134.337,0,0,0,30.342,12.139,20.024,20.024,0,0,1,6.126,2.741c3.583,3.137,3.075,7.861,7.849,14.78a34.468,34.468,0,0,0,8.977,9.127c10.019,6.919,21.278,7.353,33.207,7.811,10.776.41,22.989.881,36.939,5.481,5.778,1.91,11.78,5.605,18.736,9.92C194.842,480.951,217.707,495,255.973,495s61.292-14.123,78.118-24.428c6.907-4.24,12.872-7.9,18.489-9.758,13.949-4.613,26.163-5.072,36.939-5.481,11.928-.459,23.187-.893,33.206-7.812a34.584,34.584,0,0,0,10.218-11.16c3.434-5.84,3.348-9.919,6.572-12.771a18.971,18.971,0,0,1,5.753-2.629A134.893,134.893,0,0,0,476.02,408.71a48.344,48.344,0,0,0,13.019-10.193l.124-.149C498.389,388.5,500.708,376.867,496.926,366.6Zm-34.013,18.277c-20.745,11.458-34.533,10.23-45.259,17.137-9.114,5.865-3.72,18.513-10.342,23.076-8.134,5.617-32.177-.4-63.239,9.858-25.618,8.469-41.961,32.822-88.038,32.822s-62.036-24.3-88.076-32.884c-31-10.255-55.092-4.241-63.239-9.858-6.609-4.563-1.24-17.211-10.341-23.076-10.739-6.907-24.527-5.679-45.26-17.075-13.206-7.291-5.716-11.8-1.314-13.937,75.143-36.381,87.133-92.552,87.666-96.719.645-5.046,1.364-9.014-4.191-14.148-5.369-4.96-29.189-19.7-35.8-24.316-10.937-7.638-15.748-15.264-12.2-24.638,2.48-6.485,8.531-8.928,14.879-8.928a27.643,27.643,0,0,1,5.965.67c12,2.6,23.659,8.617,30.392,10.242a10.749,10.749,0,0,0,2.48.335c3.6,0,4.86-1.811,4.612-5.927-.768-13.132-2.628-38.725-.558-62.644,2.84-32.909,13.442-49.215,26.04-63.636,6.051-6.932,34.484-36.976,88.857-36.976s82.88,29.92,88.931,36.827c12.611,14.421,23.225,30.727,26.04,63.636,2.071,23.919.285,49.525-.558,62.644-.285,4.327,1.017,5.927,4.613,5.927a10.648,10.648,0,0,0,2.48-.335c6.745-1.624,18.4-7.638,30.4-10.242a27.641,27.641,0,0,1,5.964-.67c6.386,0,12.4,2.48,14.88,8.928,3.546,9.374-1.24,17-12.189,24.639-6.609,4.612-30.429,19.343-35.8,24.315-5.568,5.134-4.836,9.1-4.191,14.149.533,4.228,12.511,60.4,87.666,96.718C468.629,373.011,476.119,377.524,462.913,384.877Z"/></svg>

<?xml version="1.0" encoding="utf-8"?>
<svg width="512px" height="512px" viewBox="0 0 512 512" version="1.1" xmlns:xlink="http://www.w3.org/1999/xlink" xmlns="http://www.w3.org/2000/svg">
  <defs>
    <path d="M0 0L512 0L512 512L0 512L0 0Z" id="path_1" />
    <clipPath id="mask_1">
      <use xlink:href="#path_1" />
    </clipPath>
  </defs>
  <g id="snapchat">
    <path d="M0 0L512 0L512 512L0 512L0 0Z" id="Background" fill="#FFFFFF" fill-opacity="0" fill-rule="evenodd" stroke="none" />
    <g clip-path="url(#mask_1)">
      <path d="M496.926 366.6C493.553 357.424 487.126 352.514 479.814 348.447C478.438 347.641 477.173 346.996 476.094 346.5C473.912 345.372 471.68 344.28 469.46 343.127C446.66 331.037 428.851 315.786 416.501 297.707C412.993 292.618 409.951 287.222 407.412 281.587C406.358 278.574 406.412 276.863 407.164 275.3C407.914 274.096 408.906 273.062 410.078 272.262C413.996 269.671 418.038 267.042 420.778 265.269C425.663 262.107 429.532 259.602 432.024 257.829C441.386 251.282 447.933 244.329 452.024 236.551C457.802 225.683 458.569 212.839 454.124 201.36C447.924 185.042 432.511 174.911 413.837 174.911C409.898 174.908 405.97 175.323 402.119 176.151C401.09 176.375 400.06 176.61 399.056 176.871C399.23 165.711 398.982 153.931 397.99 142.337C394.468 101.579 380.196 80.2141 365.316 63.177C355.789 52.5005 344.566 43.468 332.1 36.443C309.515 23.547 283.91 17 256 17C228.09 17 202.6 23.547 180 36.443C167.503 43.4703 156.257 52.5206 146.719 63.226C131.839 80.264 117.567 101.666 114.046 142.387C113.054 153.981 112.806 165.822 112.967 176.92C111.967 176.66 110.946 176.42 109.916 176.201C106.065 175.373 102.138 174.957 98.199 174.961C79.512 174.961 64.074 185.092 57.899 201.41C53.4332 212.893 54.1799 225.75 59.945 236.638C64.05 244.412 70.597 251.369 79.959 257.916C82.439 259.652 86.32 262.156 91.205 265.356C93.846 267.067 97.705 269.572 101.485 272.076C102.808 272.932 103.934 274.061 104.785 275.387C105.579 277.011 105.603 278.76 104.425 281.987C101.92 287.504 98.9278 292.786 95.485 297.772C83.408 315.441 66.122 330.42 44.051 342.411C32.355 348.608 20.2 352.75 15.069 366.7C11.201 377.228 13.73 389.206 23.563 399.3C27.1718 403.067 31.3575 406.236 35.963 408.687C45.5452 413.953 55.7346 418.03 66.3049 420.826C68.4866 421.388 70.5577 422.315 72.431 423.567C76.014 426.704 75.506 431.428 80.28 438.347C82.6761 441.923 85.721 445.019 89.257 447.474C99.276 454.393 110.535 454.827 122.464 455.285C133.24 455.695 145.453 456.166 159.403 460.766C165.181 462.676 171.183 466.371 178.139 470.686C194.842 480.951 217.707 495 255.973 495C294.239 495 317.265 480.877 334.091 470.572C340.998 466.332 346.963 462.672 352.58 460.814C366.529 456.201 378.743 455.742 389.519 455.333C401.447 454.874 412.706 454.44 422.725 447.521C426.913 444.601 430.403 440.79 432.943 436.361C436.377 430.521 436.291 426.442 439.515 423.59C441.272 422.398 443.217 421.509 445.268 420.961C455.983 418.155 466.311 414.041 476.02 408.71C480.913 406.085 485.317 402.637 489.039 398.517L489.163 398.368C498.389 388.5 500.708 376.867 496.926 366.6L496.926 366.6ZM462.913 384.877C442.168 396.335 428.38 395.107 417.654 402.014C408.54 407.879 413.934 420.527 407.312 425.09C399.178 430.707 375.135 424.69 344.073 434.948C318.455 443.417 302.112 467.77 256.035 467.77C209.958 467.77 193.999 443.47 167.959 434.886C136.959 424.631 112.867 430.645 104.72 425.028C98.111 420.465 103.48 407.817 94.379 401.952C83.64 395.045 69.852 396.273 49.119 384.877C35.913 377.586 43.403 373.077 47.805 370.94C122.948 334.559 134.938 278.388 135.471 274.221C136.116 269.175 136.835 265.207 131.28 260.073C125.911 255.113 102.091 240.373 95.48 235.757C84.543 228.119 79.732 220.493 83.28 211.119C85.76 204.634 91.811 202.191 98.159 202.191C100.166 202.197 102.166 202.422 104.124 202.861C116.124 205.461 127.783 211.478 134.516 213.103C135.327 213.311 136.159 213.423 136.996 213.438C140.596 213.438 141.856 211.627 141.608 207.511C140.84 194.379 138.98 168.786 141.05 144.867C143.89 111.958 154.492 95.652 167.09 81.231C173.141 74.299 201.574 44.255 255.947 44.255C310.32 44.255 338.827 74.175 344.878 81.082C357.489 95.503 368.103 111.809 370.918 144.718C372.989 168.637 371.203 194.243 370.36 207.362C370.075 211.689 371.377 213.289 374.973 213.289C375.81 213.275 376.642 213.163 377.453 212.954C384.198 211.33 395.853 205.316 407.853 202.712C409.811 202.273 411.811 202.048 413.817 202.042C420.203 202.042 426.217 204.522 428.697 210.97C432.243 220.344 427.457 227.97 416.508 235.609C409.899 240.221 386.079 254.952 380.708 259.924C375.14 265.058 375.872 269.024 376.517 274.073C377.05 278.301 389.028 334.473 464.183 370.791C468.629 373.011 476.119 377.524 462.913 384.877L462.913 384.877Z" id="Shape" fill="#FFFFFF" fill-rule="evenodd" stroke="none" />
    </g>
  </g>
</svg>
